icons/communication/message-heart-alt-24.svg

<svg width="24" height="24" viewBox="0 0 24 24" fill="none" xmlns="http://www.w3.org/2000/svg">
<path fill-rule="evenodd" clip-rule="evenodd" d="M15.9503 15.4632C15.2135 15.4634 14.4321 16.1513 14.4318 17.124C14.4315 18.2956 15.293 19.3944 16.277 20.2504C16.8128 20.7127 17.3892 21.1234 17.9988 21.4776C18.1013 21.418 18.2379 21.3364 18.398 21.234C18.8613 20.9385 19.3041 20.609 19.7214 20.249C20.7053 19.3938 21.5679 18.294 21.5682 17.1224C21.5685 16.1493 20.787 15.4619 20.0506 15.4621C19.5323 15.4622 19.1012 15.6936 18.785 16.0915C18.3843 16.5958 17.6158 16.5957 17.2156 16.0918C16.8999 15.6943 16.4687 15.4631 15.9503 15.4632ZM13 17.1244C13.0005 15.3442 14.4231 14.0016 15.9507 14.0011C16.7596 14.0009 17.4625 14.3103 18.0007 14.8149C18.5392 14.31 19.2419 14.0002 20.051 14C21.5781 13.9996 23.0005 15.3414 23 17.122C22.9995 18.987 21.6801 20.4662 20.6481 21.363L20.6462 21.3646C20.1763 21.7702 19.6785 22.1408 19.1566 22.4736C18.9539 22.6032 18.7843 22.7035 18.6649 22.7723L18.664 22.7728C18.5981 22.8106 18.5324 22.847 18.468 22.8818C18.4539 22.8894 18.4396 22.8965 18.4251 22.9031C18.2917 22.9668 18.146 23 17.9984 23C17.8381 23 17.6801 22.961 17.5375 22.8862L17.5338 22.8842C17.4662 22.8482 17.3992 22.8112 17.3328 22.773C16.6308 22.3688 15.967 21.8976 15.3515 21.3665L15.3494 21.3647C14.3177 20.4674 12.9995 18.9894 13 17.1244Z" fill="black"/>
<path d="M12.5 3.5C8.08173 3.5 4.50001 7.08172 4.50001 11.5C4.50001 12.7385 4.78091 13.9092 5.28177 14.9539C5.39825 15.1969 5.37227 15.4713 5.23708 15.6828L3.80161 19.0948L8.34898 18.5132C8.48487 18.4958 8.61691 18.516 8.73469 18.5656C8.75906 18.5752 8.78317 18.5862 8.80691 18.5986C9.1186 18.7611 9.44235 18.9037 9.77652 19.0247C10.1745 19.1687 10.4178 19.5893 10.2991 19.9955C10.1855 20.3839 9.78254 20.6145 9.40009 20.4825C9.02686 20.3537 8.6641 20.2023 8.3135 20.03L3.13105 20.6928C2.36666 20.7906 1.7836 20.0234 2.08244 19.3131L3.78057 15.2767C3.27821 14.1184 3.00001 12.8408 3.00001 11.5C3.00001 6.25329 7.2533 2 12.5 2C17.4943 2 21.5885 5.85392 21.9708 10.7501C22.0031 11.163 21.6642 11.5 21.25 11.5C20.8358 11.5 20.5037 11.1631 20.4654 10.7507C20.0876 6.68377 16.6656 3.5 12.5 3.5Z" fill="black"/>
</svg>

<svg xmlns="http://www.w3.org/2000/svg" width="24" height="24"><path fill-rule="evenodd" d="M15.95 15.463c-.736 0-1.518.688-1.518 1.661 0 1.172.861 2.27 1.845 3.126.536.463 1.112.873 1.722 1.228a11.469 11.469 0 001.723-1.229c.983-.855 1.846-1.955 1.846-3.127 0-.973-.781-1.66-1.517-1.66-.519 0-.95.232-1.266.63-.4.504-1.17.504-1.57 0-.315-.398-.746-.629-1.265-.629zM13 17.124c0-1.78 1.423-3.122 2.95-3.123.81 0 1.512.31 2.05.814A2.957 2.957 0 0120.052 14c1.527 0 2.95 1.341 2.949 3.122 0 1.865-1.32 3.344-2.352 4.241l-.002.002a12.87 12.87 0 01-1.981 1.407h-.001a8.857 8.857 0 01-.239.131.99.99 0 01-.887-.017l-.004-.002a12.845 12.845 0 01-2.182-1.518l-.003-.001c-1.031-.898-2.35-2.376-2.349-4.24z"/><path d="M12.5 3.5a8 8 0 00-7.218 11.454.75.75 0 01-.045.729l-1.435 3.412 4.547-.582a.746.746 0 01.458.086c.312.162.635.305.97.426.398.144.64.564.522.97-.114.389-.516.62-.899.488a9.461 9.461 0 01-1.087-.453l-5.182.663a1 1 0 01-1.049-1.38l1.699-4.036A9.5 9.5 0 0112.5 2c4.993 0 9.087 3.854 9.47 8.75.032.413-.307.75-.721.75s-.746-.337-.785-.75A8 8 0 0012.5 3.5z"/></svg>
